img/features__05.svg

<svg width="26" height="24" viewBox="0 0 26 24" fill="none" xmlns="http://www.w3.org/2000/svg">
<path d="M25.0548 7.4078L20.3542 6.36055C21.3892 5.43522 21.4782 3.84585 20.5527 2.8108C19.9315 2.11592 18.9768 1.82175 18.0723 2.04659C16.9328 2.34416 15.2518 4.42677 14.7847 5.02168C14.6181 4.28684 13.9814 1.67769 13.071 0.933838C11.993 0.0589614 10.4097 0.22359 9.53487 1.30168C8.9479 2.02486 8.80893 3.01327 9.1737 3.87023L4.02971 2.72483C3.78907 2.6714 3.55066 2.8231 3.49734 3.06363C3.49734 3.06352 3.49734 3.06373 3.49734 3.06363L2.54815 7.3303C2.49472 7.57094 2.64642 7.80935 2.88695 7.86278C2.88674 7.86278 2.88706 7.86278 2.88695 7.86278L22.2793 12.1797V23.0984H12.4613V11.9418C12.4613 11.6954 12.2615 11.4956 12.015 11.4956C11.7686 11.4956 11.5688 11.6955 11.5688 11.9418V23.0986H1.75087V11.1981H8.14745C8.39391 11.1981 8.59374 10.9983 8.59374 10.7518C8.59374 10.5053 8.39391 10.3056 8.14745 10.3056H1.30458C1.05822 10.3056 0.858398 10.5054 0.858398 10.7518V23.5448C0.858398 23.7914 1.05822 23.9912 1.30458 23.9912H22.7255C22.9719 23.9912 23.1717 23.7914 23.1717 23.5448V12.3881L23.9096 12.5518C23.9423 12.5554 23.9752 12.5554 24.0078 12.5518C24.2161 12.5514 24.3963 12.4069 24.4422 12.2037L25.3912 7.94324C25.4465 7.70313 25.2968 7.46355 25.0567 7.40811C25.056 7.40801 25.0554 7.4079 25.0548 7.4078ZM18.2865 2.91532C19.1617 2.72546 20.0249 3.28115 20.2148 4.15624C20.3962 4.99306 19.8957 5.8267 19.0719 6.06002H19.0422L15.6892 5.32221C16.4657 4.35532 17.6676 3.07009 18.2865 2.91532ZM10.4619 4.14108C9.78165 3.55857 9.70246 2.53507 10.2849 1.85483C10.847 1.19843 11.8253 1.09815 12.5088 1.62712C13.0027 2.03175 13.5442 3.70974 13.8386 4.89977L10.4857 4.16493L10.4619 4.14108ZM23.6685 11.5789L3.51494 7.08341L4.27066 3.69172L24.4241 8.1843L23.6685 11.5789Z" fill="white"/>
</svg>

<svg width="26" height="24" fill="none" xmlns="http://www.w3.org/2000/svg"><path d="M25.055 7.408l-4.7-1.047a2.514 2.514 0 00-2.283-4.314c-1.14.297-2.82 2.38-3.287 2.975-.167-.735-.804-3.344-1.714-4.088A2.514 2.514 0 009.174 3.87L4.03 2.725a.446.446 0 00-.533.339L2.548 7.33a.446.446 0 00.339.533l19.392 4.317v10.918h-9.818V11.942a.446.446 0 00-.892 0v11.157H1.75v-11.9h6.396a.446.446 0 000-.893H1.305c-.247 0-.447.2-.447.446v12.793c0 .246.2.446.447.446h21.42c.247 0 .447-.2.447-.446V12.388l.738.164a.448.448 0 00.098 0 .446.446 0 00.434-.348l.95-4.26a.446.446 0 00-.335-.536h-.002zm-6.768-4.493a1.621 1.621 0 01.785 3.145h-.03l-3.353-.738c.777-.967 1.979-2.252 2.598-2.407zm-7.825 1.226a1.621 1.621 0 012.047-2.514c.494.405 1.035 2.083 1.33 3.273l-3.353-.735-.024-.024zm13.207 7.438L3.515 7.083l.756-3.391 20.153 4.492-.755 3.395z" fill="#fff"/></svg>
